packages/katcn/src/icons/svg/rightAlign-solid.svg

<svg width="24" height="25" viewBox="0 0 24 25" fill="none" xmlns="http://www.w3.org/2000/svg">
<path d="M20.1 5.99602H3.9C2.8 5.99602 2 5.19602 2 4.19602C2 3.09602 2.8 2.29602 3.9 2.29602H20.2C21.2 2.29602 22.1 3.09602 22.1 4.19602C22 5.19602 21.2 5.99602 20.1 5.99602Z" fill="black"/>
<path d="M3.9 13.196H20.2C21.2 13.196 22.1 13.996 22.1 15.096C22.1 16.096 21.3 16.996 20.2 16.996H3.9C2.9 16.996 2 16.196 2 15.096C2 13.996 2.8 13.196 3.9 13.196Z" fill="black"/>
<path d="M20.1 11.396H10.1C9.1 11.396 8.2 10.596 8.2 9.49601C8.2 8.49601 9 7.59601 10.1 7.59601H20.1C21.1 7.59601 22 8.39601 22 9.49601C22 10.596 21.2 11.396 20.1 11.396Z" fill="black"/>
<path d="M10.2 18.596H20.2C21.2 18.596 22.1 19.396 22.1 20.496C22.1 21.496 21.3 22.396 20.2 22.396H10.2C9.2 22.396 8.3 21.596 8.3 20.496C8.3 19.396 9.1 18.596 10.2 18.596Z" fill="black"/>
</svg>

<svg xmlns="http://www.w3.org/2000/svg" fill="none" viewBox="0 0 24 25"><path fill="#000" d="M20.1 5.996H3.9c-1.1 0-1.9-.8-1.9-1.8 0-1.1.8-1.9 1.9-1.9h16.3c1 0 1.9.8 1.9 1.9-.1 1-.9 1.8-2 1.8m-16.2 7.2h16.3c1 0 1.9.8 1.9 1.9 0 1-.8 1.9-1.9 1.9H3.9c-1 0-1.9-.8-1.9-1.9s.8-1.9 1.9-1.9m16.2-1.8h-10c-1 0-1.9-.8-1.9-1.9 0-1 .8-1.9 1.9-1.9h10c1 0 1.9.8 1.9 1.9s-.8 1.9-1.9 1.9m-9.9 7.2h10c1 0 1.9.8 1.9 1.9 0 1-.8 1.9-1.9 1.9h-10c-1 0-1.9-.8-1.9-1.9s.8-1.9 1.9-1.9"/></svg>
